img/logos/f5.svg

<?xml version="1.0" encoding="UTF-8" standalone="no"?>
<svg width="100px" height="99px" viewBox="0 0 100 99" version="1.1" xmlns="http://www.w3.org/2000/svg" xmlns:xlink="http://www.w3.org/1999/xlink">
    <!-- Generator: Sketch 48.1 (47250) - http://www.bohemiancoding.com/sketch -->
    <title>f5-logo</title>
    <desc>Created with Sketch.</desc>
    <defs></defs>
    <g id="Page-1" stroke="none" stroke-width="1" fill="none" fill-rule="evenodd">
        <g id="f5-logo" fill-rule="nonzero">
            <circle id="bg" fill="#7C7C7C" cx="50" cy="49.5555556" r="49.3333333"></circle>
            <path d="M48.8666667,54.4222222 C73.0888889,56.4222222 82.4222222,63.0888889 81.9777778,72.2 C81.5333333,77.0888889 76.8666667,81.7555556 70.8666667,82.2 C63.7555556,82.6444444 60.4222222,79.7555556 58.4222222,76.6444444 C56.6444444,73.7555556 54.6444444,70.8666667 52.6444444,67.7555556 C52.2,66.8666667 51.3111111,67.5333333 50.6444444,67.9777778 C49.0888889,69.3111111 47.7555556,70.8666667 46.4222222,72.2 C45.5333333,73.0888889 45.7555556,73.7555556 45.9777778,74.4222222 C47.3111111,77.5333333 48.6444444,80.6444444 49.9777778,83.5333333 C52.2,84.8666667 62.2,86.6444444 69.5333333,85.9777778 C74.6444444,85.5333333 80.8666667,83.5333333 86.2,79.7555556 C91.3111111,75.7555556 95.0888889,70.4222222 95.7555556,61.7555556 C95.9777778,56.4222222 95.0888889,50.8666667 90.4222222,45.7555556 C85.7555556,40.6444444 77.7555556,36.4222222 61.5333333,35.3111111 C62.4222222,32.6444444 63.0888889,30.2 63.9777778,27.7555556 C73.7555556,28.2 82.4222222,28.8666667 89.7555556,29.7555556 C90.4222222,26.8666667 90.6444444,24.2 91.3111111,21.5333333 L89.3111111,19.0888889 C85.5333333,18.6444444 81.9777778,17.7555556 77.9777778,17.3111111 C72.8666667,16.6444444 67.5333333,16.2 61.7555556,15.9777778 C57.9777778,26.6444444 53.5333333,40.2 48.8666667,54.4222222 M42.4222222,12.8666667 C40.6444444,12.8666667 38.2,13.3111111 34.2,14.2 C25.5333333,16.6444444 14.8666667,22.6444444 13.7555556,32.6444444 C13.5333333,34.2 13.5333333,35.9777778 13.3111111,37.5333333 C10.8666667,37.7555556 8.64444444,37.9777778 6.42222222,38.2 C6.2,40.2 6.2,41.9777778 5.97777778,43.9777778 C8.2,43.7555556 10.4222222,43.7555556 12.8666667,43.5333333 C12.4222222,53.9777778 12.8666667,64.4222222 13.7555556,74.2 C13.9777778,75.7555556 13.9777778,77.0888889 13.9777778,77.9777778 C13.7555556,78.8666667 12.2,79.3111111 9.97777778,79.3111111 L12.8666667,82.8666667 C21.3111111,84.4222222 31.9777778,85.5333333 43.3111111,85.7555556 C43.3111111,84.6444444 43.3111111,83.5333333 43.3111111,82.4222222 C36.6444444,81.9777778 33.5333333,81.0888889 33.0888889,79.7555556 C32.6444444,78.6444444 32.6444444,77.0888889 32.4222222,75.5333333 C31.9777778,65.3111111 31.7555556,54.2 31.9777778,42.8666667 C35.7555556,42.8666667 39.5333333,42.8666667 43.3111111,42.6444444 C45.3111111,41.7555556 47.0888889,40.8666667 48.8666667,39.9777778 C48.8666667,38.6444444 48.8666667,37.3111111 48.8666667,36.2 C43.0888889,36.2 37.5333333,36.4222222 31.9777778,36.4222222 C32.2,31.7555556 32.4222222,27.3111111 32.6444444,23.0888889 C32.8666667,20.2 34.8666667,18.2 36.6444444,18.2 C39.7555556,17.9777778 42.6444444,19.3111111 45.5333333,20.6444444 C47.0888889,21.3111111 48.6444444,22.2 50.2,22.8666667 C50.8666667,23.0888889 51.7555556,23.3111111 52.4222222,22.6444444 C53.3111111,21.5333333 54.2,20.4222222 55.0888889,19.5333333 C55.5333333,18.8666667 55.3111111,18.4222222 55.0888889,18.2 C53.0888889,16.6444444 51.3111111,15.3111111 49.3111111,13.7555556 C48.2,12.8666667 46.2,12.8666667 44.4222222,12.8666667 C43.7555556,12.6444444 43.0888889,12.8666667 42.4222222,12.8666667" id="Shape" fill="#FFFFFF"></path>
        </g>
    </g>
</svg>

<svg width="100" height="99" xmlns="http://www.w3.org/2000/svg"><g fill-rule="nonzero" fill="none"><circle cx="50" cy="49.556" r="49.333" fill="#7C7C7C"/><path d="M48.867 54.422c24.222 2 33.556 8.667 33.111 17.778-.444 4.889-5.111 9.556-11.111 10-7.111.444-10.444-2.444-12.444-5.556-1.778-2.889-3.778-5.777-5.778-8.889-.444-.888-1.333-.222-2 .223-1.555 1.333-2.889 2.889-4.222 4.222-.889.889-.667 1.556-.444 2.222 1.333 3.111 2.666 6.222 4 9.111 2.222 1.334 12.222 3.111 19.556 2.445 5.11-.445 11.333-2.445 16.667-6.223 5.11-4 8.888-9.333 9.555-18 .222-5.333-.667-10.889-5.333-16-4.667-5.11-12.667-9.333-28.89-10.444.89-2.666 1.556-5.11 2.445-7.555 9.778.444 18.444 1.11 25.778 2 .667-2.89.89-5.556 1.556-8.222l-2-2.445c-3.778-.444-7.333-1.333-11.333-1.778-5.111-.666-10.444-1.11-16.222-1.333-3.778 10.667-8.222 24.222-12.89 38.444m-6.444-41.556c-1.777 0-4.222.445-8.222 1.333-8.666 2.445-19.333 8.445-20.444 18.444-.222 1.556-.222 3.334-.444 4.89-2.445.222-4.667.444-6.89.666-.221 2-.221 3.778-.444 5.778 2.223-.222 4.445-.222 6.89-.445-.445 10.444 0 20.89.888 30.667.222 1.556.222 2.89.222 3.778-.222.889-1.777 1.333-4 1.333l2.89 3.556c8.444 1.556 19.11 2.667 30.443 2.889v-3.333c-6.666-.445-9.777-1.334-10.222-2.667-.444-1.111-.444-2.667-.666-4.222-.445-10.222-.667-21.333-.445-32.667 3.778 0 7.556 0 11.333-.222 2-.89 3.778-1.778 5.556-2.667v-3.778c-5.778 0-11.333.222-16.89.222.223-4.666.445-9.11.668-13.333.222-2.889 2.222-4.889 4-4.889 3.11-.222 6 1.111 8.888 2.445 1.556.666 3.112 1.555 4.667 2.222.667.222 1.556.444 2.222-.222.89-1.111 1.778-2.222 2.667-3.111.444-.667.222-1.111 0-1.334-2-1.555-3.778-2.889-5.778-4.444-1.11-.889-3.11-.889-4.889-.889-.666-.222-1.333 0-2 0" fill="#fff"/></g></svg>
